assets/marketplace/exchange.svg

<svg fill="none" height="26" viewBox="0 0 27 26" width="27" xmlns="http://www.w3.org/2000/svg"><g clip-rule="evenodd" fill="#fff" fill-rule="evenodd"><path d="m25.4085 20.7999-1.2036-1.0632c-2.5406 3.9485-7.0591 6.2378-11.8091 5.9832-4.75007-.2546-8.98778-3.0133-11.07543-7.2099 4.04222 4.6855 14.43033 3.6917 20.79723-.6178l-1.8356-1.6129c5.1881-2.0699 6.3747-4.9261 6.3996-4.9879.6953 3.2206.244 6.5778-1.2783 9.5111"/><path d="m.00002277 12.8725c-.00588993-3.09581 1.13112723-6.08881 3.20049723-8.42475l.01574-.01545c.0708-.08238.1416-.16347.21633-.2407.13111-.14288.26223-.2819.40646-.41963 2.45771-2.41504 5.79239-3.77197 9.26965-3.77197 3.4773 0 6.8121 1.35693 9.2698 3.77197 5.8817 5.77309-1.6888 13.23503-10.9978 12.94933v2.5177l-8.01498-5.6431 8.01498-5.64308v2.54218c2.6485-.3951 7.3253-1.5639 5.9551-4.83084-1.8841-4.51295-15.13174-3.47546-17.33577723 7.20834z"/></g></svg>

<svg width="27" height="26" viewBox="0 0 27 26" fill="none" xmlns="http://www.w3.org/2000/svg">
    <path fill-rule="evenodd" clip-rule="evenodd" d="M25.4085 20.7999L24.2049 19.7367C21.6643 23.6852 17.1458 25.9745 12.3958 25.7199C7.64573 25.4653 3.40802 22.7066 1.32037 18.51C5.36259 23.1955 15.7507 22.2017 22.1176 17.8922L20.282 16.2793C25.4701 14.2094 26.6567 11.3532 26.6816 11.2914C27.3769 14.512 26.9256 17.8692 25.4033 20.8025" fill="white"/>
    <path fill-rule="evenodd" clip-rule="evenodd" d="M2.27687e-05 12.8725C-0.00586716 9.77669 1.13115 6.78369 3.20052 4.44775L3.21626 4.4323C3.28706 4.34992 3.35786 4.26883 3.43259 4.1916C3.5637 4.04872 3.69482 3.9097 3.83905 3.77197C6.29676 1.35693 9.63144 0 13.1087 0C16.586 0 19.9208 1.35693 22.3785 3.77197C28.2602 9.54506 20.6897 17.007 11.3807 16.7213V19.239L3.36572 13.5959L11.3807 7.95282V10.495C14.0292 10.0999 18.706 8.9311 17.3358 5.66416C15.4517 1.15121 2.20406 2.1887 2.27687e-05 12.8725Z" fill="white"/>
</svg>
